outputs/icons/action/delete_outline_round.svg

<svg xmlns="http://www.w3.org/2000/svg" width="1200" height="1200" fill="none"><g clip-path="url(#a)"><path fill="#000" d="M300 950c0 55 45 100 100 100h400c55 0 100-45 100-100V350H300zm500-500v450c0 27.5-22.5 50-50 50H450c-27.5 0-50-22.5-50-50V450zm-25-250-35.5-35.5c-9-9-22-14.5-35-14.5h-209c-13 0-26 5.5-35 14.5L425 200H300c-27.5 0-50 22.5-50 50s22.5 50 50 50h600c27.5 0 50-22.5 50-50s-22.5-50-50-50z"/></g><defs><clipPath id="a"><path fill="#fff" d="M0 0h1200v1200H0z"/></clipPath></defs></svg>

<svg width="1200" height="1200" viewBox="0 0 1200 1200" fill="none" xmlns="http://www.w3.org/2000/svg"><g clip-path="url(#clip0_217_706)"><path d="M300 950C300 1005 345 1050 400 1050H800C855 1050 900 1005 900 950V350H300V950ZM800 450V900C800 927.5 777.5 950 750 950H450C422.5 950 400 927.5 400 900V450H800ZM775 200L739.5 164.5C730.5 155.5 717.5 150 704.5 150H495.5C482.5 150 469.5 155.5 460.5 164.5L425 200H300C272.5 200 250 222.5 250 250C250 277.5 272.5 300 300 300H900C927.5 300 950 277.5 950 250C950 222.5 927.5 200 900 200H775Z" fill="black"/></g><defs><clipPath id="clip0_217_706"><path width="24" fill="white" d="M0 0H1200V1200H0V0z"/></clipPath></defs></svg>
